svg/u1f412.svg

<svg viewBox="0 0 128 128" xmlns="http://www.w3.org/2000/svg">
  <path d="M71.45,84.59l-9.39-16.99l-23.18,8.87c0,0-1.13,1.45-0.89,3.99c0.1,1.13,0.61,4.32,0.61,4.32 l-4.32,0.66c0,0-6.19,5.16-4.22,13.23c1.5,6.13,3.1,9.39,3.1,9.39l-0.84,6.01c0,0,13.8,6,27.22,5.63 c17.18-0.47,23.65-9.57,23.65-9.57l-4.69-21.21L71.45,84.59z" fill="#845A54"/>
  <path d="M31.66,86.57c-1.99,1.87-2.32,4.83-2.16,5.87c0.38,2.44,4.13,9.15,8.26,8.87 c4.13-0.28,2.16-8.54,0.84-11.54S34.85,83.56,31.66,86.57z" fill="#B5885E"/>
  <path d="M20.49,118.94c-0.14,2.05,2.16,1.97,6.48,1.97s14.73-0.75,14.73-0.75l-0.84-5.73 c0,0-2.61,0.18-6.19-1.78c-1.45-0.8-1.92-1.83-1.92-1.83S20.77,114.82,20.49,118.94z" fill="#B5885E"/>
  <path d="M51.61,80.46c0,0-4.6-0.18-8.03,3.81c-2.18,2.53-6.66,14.69-3.38,16.38 c3.28,1.69,5.53-4.27,6.76-7.04c1.13-2.53,3.19-5.44,4.97-6.38c1.78-0.94,3.28-1.97,3.28-1.97L51.61,80.46z" fill="#FFCD88"/>
  <path d="M43.96,113.31c0,0-1.6,0-3.19,0.56c-1.6,0.56-10.51,4.88-10.42,7.23c0.09,2.35,5.54,2.35,12.29,2.25 c6.76-0.09,8.54-1.41,9.1-1.97c0.56-0.56,2.72-3.47,1.97-3.85C52.97,117.16,43.96,113.31,43.96,113.31z" fill="#FFCD88"/>
  <path d="M69.01,70.23c0,0,5.26-4.6,7.32-9.01c2.06-4.41,1.97-8.63,1.97-8.63s9.97-2.63,7.46-14.96 c-2.12-10.44-10.56-8.22-10.56-8.22s-5.73-11.92-21.12-15.2s-28.87,4.32-34.54,12.01c-6.57,8.92-5.44,20.37-5.44,20.37 s-5.07-0.47-7.41,4.04c-2.43,4.67-1.6,12.29,2.91,15.77c4.5,3.47,11.54,2.53,11.54,2.53s4.88,5.26,10.51,7.6 c5.78,2.41,11.26,2.72,17.93,2.06s12.01-4.13,12.01-4.13s-0.28,1.88,0.94,4.32c0.76,1.51,3.38,4.41,3.38,4.41s-4.27-2.25-7.7-2.86 c-3.72-0.66-6.1-0.42-7.51,0.42c-1.07,0.64,0.31,5.73,1.88,6.01c1.6,0.28,4.22-0.47,8.82,1.31c4.6,1.78,10.51,6.01,12.01,6.95 c1.5,0.94,4.55,2.53,4.79,4.6c0.18,1.59-2.39,3.66-6.9-0.94c-4.32-4.41-8.49-8.63-13.19-9.2c-4.69-0.56-7.6,0.66-9.76,5.35 c-2.77,6.03-5.07,13.33-5.54,15.2c-0.47,1.88-1.78,2.91-0.75,4.69c0.72,1.24,8.67,5.87,10.51,5.73c2.35-0.19,4.22-4.97,4.79-5.82 c0.56-0.84,1.78-2.63,1.78-2.63s4.13,9.76,12.86,8.92s9.95-6.29,9.95-6.29s6.79,0.34,13.98-1.71c9.64-2.75,16.23-11.56,18.3-25.69 c1.5-10.23-0.38-25.15-5.16-37.64c-1.76-4.58-3.83-10.01-5.16-13.8c-3.41-9.66-4.6-16.64,0.94-18.68c2.82-1.04,4.63,0.19,5.45,1.8 c1.12,2.21,1.31,4.95,4.87,6.36c2.54,1,5.73,0.19,7.13-2.16c1.76-2.94,1.14-7.24-2.63-12.11c-6.48-8.35-17.27-7.56-23.18-3.1 c-6.32,4.76-9.01,11.1-5.91,22.99c2.91,11.17,9.31,25.39,10.7,32.29c1.88,9.29,3.58,32.13-7.98,36.79 c-5.35,2.16-9.29,1.31-9.29,1.31s-0.94-10.68-4.32-18.4C75.84,74.07,69.01,70.23,69.01,70.23z" fill="#B5885D"/>
  <path d="M71.36,35.28c-0.16,0.2,0.91,3.13,1.31,6.19c0.45,3.39,0.59,6.67,0.88,6.77 c0.56,0.19,8.88-1.89,7.85-9.59S71.74,34.81,71.36,35.28z" fill="#FFCF8C"/>
  <path d="M14.58,51.28c-0.74-0.56-5.55,0.79-4.97,6.29c0.75,7.13,7.79,7.13,8.45,6.66 c0.34-0.24-1-3.49-1.88-6.66C15.33,54.52,14.95,51.55,14.58,51.28z" fill="#FFCF8C"/>
  <path d="M41.23,36.35c-4.5,1.5-10.79-5.73-16.24,0c-6.67,7.01,1.26,13.31,1.88,18.21 c0.38,3-1.31,5.26,0.38,10.32c1.41,4.22,9.24,10.5,23.48,7.61c13.33-2.71,16.46-11.15,16.11-16.46c-0.39-5.92-3.17-6.26-3.73-9.26 s2.59-14.82-6.57-17.27C47.05,26.97,46.08,34.74,41.23,36.35z" fill="#FFCF8C"/>
  <path d="M56.88,43.58c0.56,3.38,0.21,5.63-2.18,6.19c-2.86,0.67-4.72-1.27-5.28-4.72 c-0.69-4.21,0.16-6.19,2.35-6.6C54.47,37.95,56.18,39.33,56.88,43.58z" fill="#000504"/>
  <path d="M37.88,46.89c0.64,3.22,0.75,6.1-1.83,6.76c-2.47,0.63-4.52-0.95-5.42-4.43 c-1.06-4.08-0.71-6.44,1.62-7.11C34.65,41.41,36.89,41.89,37.88,46.89z" fill="#000504"/>
  <path d="M41.26,52.53c0.06,1.62,2.81,3.58,4.42,3.33c1.74-0.28,3.38-3.72,2.81-4.74 C47.75,49.8,41.21,51.05,41.26,52.53z" fill="#000504"/>
  <path d="M34.68,62.87c0.28,2.25,5.07,5.65,13.8,3.94c9.01-1.76,10.35-7.25,10.21-8.59 c-0.14-1.34-4.72-2.04-12.53-0.7C40.03,58.57,34.45,61.07,34.68,62.87z" fill="#FF6B19"/>
</svg>

<svg viewBox="0 0 128 128" xmlns="http://www.w3.org/2000/svg">
  <defs/>
  <path d="M71.45,84.59 L62.06,67.6 L38.88,76.47 C38.88,76.47 37.75,77.92 37.99,80.46 C38.09,81.59 38.6,84.78 38.6,84.78 L34.28,85.44 C34.28,85.44 28.09,90.6 30.06,98.67 C31.56,104.8 33.16,108.06 33.16,108.06 L32.32,114.07 C32.32,114.07 46.12,120.07 59.54,119.7 C76.72,119.23 83.19,110.13 83.19,110.13 L78.5,88.92 L71.45,84.59 Z" fill="#845A54"/>
  <path d="M31.66,86.57 C29.67,88.44 29.34,91.4 29.5,92.44 C29.88,94.88 33.63,101.59 37.76,101.31 C41.89,101.03 39.92,92.77 38.6,89.77 C37.28,86.77 34.85,83.56 31.66,86.57 Z" fill="#B5885E"/>
  <path d="M20.49,118.94 C20.35,120.99 22.65,120.91 26.97,120.91 C31.29,120.91 41.7,120.16 41.7,120.16 L40.86,114.43 C40.86,114.43 38.25,114.61 34.67,112.65 C33.22,111.85 32.75,110.82 32.75,110.82 C32.75,110.82 20.77,114.82 20.49,118.94 Z" fill="#B5885E"/>
  <path d="M51.61,80.46 C51.61,80.46 47.01,80.28 43.58,84.27 C41.4,86.8 36.92,98.96 40.2,100.65 C43.48,102.34 45.73,96.38 46.96,93.61 C48.09,91.08 50.15,88.17 51.93,87.23 C53.71,86.29 55.21,85.26 55.21,85.26 L51.61,80.46 Z" fill="#FFCD88"/>
  <path d="M43.96,113.31 C43.96,113.31 42.36,113.31 40.77,113.87 C39.17,114.43 30.26,118.75 30.35,121.1 C30.44,123.45 35.89,123.45 42.64,123.35 C49.4,123.26 51.18,121.94 51.74,121.38 C52.3,120.82 54.46,117.91 53.71,117.53 C52.97,117.16 43.96,113.31 43.96,113.31 Z" fill="#FFCD88"/>
  <path d="M69.01,70.23 C69.01,70.23 74.27,65.63 76.33,61.22 C78.39,56.81 78.3,52.59 78.3,52.59 C78.3,52.59 88.27,49.96 85.76,37.63 C83.64,27.19 75.2,29.41 75.2,29.41 C75.2,29.41 69.47,17.49 54.08,14.21 C38.69,10.93 25.21,18.53 19.54,26.22 C12.97,35.14 14.1,46.59 14.1,46.59 C14.1,46.59 9.03,46.12 6.69,50.63 C4.26,55.3 5.09,62.92 9.6,66.4 C14.1,69.87 21.14,68.93 21.14,68.93 C21.14,68.93 26.02,74.19 31.65,76.53 C37.43,78.94 42.91,79.25 49.58,78.59 C56.25,77.93 61.59,74.46 61.59,74.46 C61.59,74.46 61.31,76.34 62.53,78.78 C63.29,80.29 65.91,83.19 65.91,83.19 C65.91,83.19 61.64,80.94 58.21,80.33 C54.49,79.67 52.11,79.91 50.7,80.75 C49.63,81.39 51.01,86.48 52.58,86.76 C54.18,87.04 56.8,86.29 61.4,88.07 C66,89.85 71.91,94.08 73.41,95.02 C74.91,95.96 77.96,97.55 78.2,99.62 C78.38,101.21 75.81,103.28 71.3,98.68 C66.98,94.27 62.81,90.05 58.11,89.48 C53.42,88.92 50.51,90.14 48.35,94.83 C45.58,100.86 43.28,108.16 42.81,110.03 C42.34,111.91 41.03,112.94 42.06,114.72 C42.78,115.96 50.73,120.59 52.57,120.45 C54.92,120.26 56.79,115.48 57.36,114.63 C57.92,113.79 59.14,112 59.14,112 C59.14,112 63.27,121.76 72,120.92 C80.73,120.08 81.95,114.63 81.95,114.63 C81.95,114.63 88.74,114.97 95.93,112.92 C105.57,110.17 112.16,101.36 114.23,87.23 C115.73,77 113.85,62.08 109.07,49.59 C107.31,45.01 105.24,39.58 103.91,35.79 C100.5,26.13 99.31,19.15 104.85,17.11 C107.67,16.07 109.48,17.3 110.3,18.91 C111.42,21.12 111.61,23.86 115.17,25.27 C117.71,26.27 120.9,25.46 122.3,23.11 C124.06,20.17 123.44,15.87 119.67,11 C113.19,2.65 102.4,3.44 96.49,7.9 C90.17,12.66 87.48,19 90.58,30.89 C93.49,42.06 99.89,56.28 101.28,63.18 C103.16,72.47 104.86,95.31 93.3,99.97 C87.95,102.13 84.01,101.28 84.01,101.28 C84.01,101.28 83.07,90.6 79.69,82.88 C75.84,74.07 69.01,70.23 69.01,70.23 Z" fill="#B5885D"/>
  <path d="M71.36,35.28 C71.2,35.48 72.27,38.41 72.67,41.47 C73.12,44.86 73.26,48.14 73.55,48.24 C74.11,48.43 82.43,46.35 81.4,38.65 C80.37,30.95 71.74,34.81 71.36,35.28 Z" fill="#FFCF8C"/>
  <path d="M14.58,51.28 C13.84,50.72 9.03,52.07 9.61,57.57 C10.36,64.7 17.4,64.7 18.06,64.23 C18.4,63.99 17.06,60.74 16.18,57.57 C15.33,54.52 14.95,51.55 14.58,51.28 Z" fill="#FFCF8C"/>
  <path d="M41.23,36.35 C36.73,37.85 30.44,30.62 24.99,36.35 C18.32,43.36 26.25,49.66 26.87,54.56 C27.25,57.56 25.56,59.82 27.25,64.88 C28.66,69.1 36.49,75.38 50.73,72.49 C64.06,69.78 67.19,61.34 66.84,56.03 C66.45,50.11 63.67,49.77 63.11,46.77 C62.55,43.77 65.7,31.95 56.54,29.5 C47.05,26.97 46.08,34.74 41.23,36.35 Z" fill="#FFCF8C"/>
  <path d="M56.88,43.58 C57.44,46.96 57.09,49.21 54.7,49.77 C51.84,50.44 49.98,48.5 49.42,45.05 C48.73,40.84 49.58,38.86 51.77,38.45 C54.47,37.95 56.18,39.33 56.88,43.58 Z" fill="#000504"/>
  <path d="M37.88,46.89 C38.52,50.11 38.63,52.99 36.05,53.65 C33.58,54.28 31.53,52.7 30.63,49.22 C29.57,45.14 29.92,42.78 32.25,42.11 C34.65,41.41 36.89,41.89 37.88,46.89 Z" fill="#000504"/>
  <path d="M41.26,52.53 C41.32,54.15 44.07,56.11 45.68,55.86 C47.42,55.58 49.06,52.14 48.49,51.12 C47.75,49.8 41.21,51.05 41.26,52.53 Z" fill="#000504"/>
  <path d="M34.68,62.87 C34.96,65.12 39.75,68.52 48.48,66.81 C57.49,65.05 58.83,59.56 58.69,58.22 C58.55,56.88 53.97,56.18 46.16,57.52 C40.03,58.57 34.45,61.07 34.68,62.87 Z" fill="#FF6B19"/>
</svg>
